packages/crayons-core/src/components/icon/icon-assets/icons/new-note.svg

<?xml version="1.0" encoding="UTF-8"?>
<svg width="14px" height="16px" viewBox="0 0 14 16" version="1.1" xmlns="http://www.w3.org/2000/svg" xmlns:xlink="http://www.w3.org/1999/xlink">
    <!-- Generator: Sketch 52.6 (67491) - http://www.bohemiancoding.com/sketch -->
    <title>icon/new-note</title>
    <desc>Created with Sketch.</desc>
    <g id="Icons-✅" stroke="none" stroke-width="1" fill="none" fill-rule="evenodd">
        <g id="Icons" transform="translate(-81.000000, -1596.000000)" fill="currentColor">
            <g id="icon/new-note" transform="translate(81.000000, 1596.000000)">
                <g id="new-note">
                    <path d="M13.7,4.6 C13.7,4.62 13.67,4.65 13.67,4.65 L13.67,13.33 C13.6645164,14.8023229 12.4723229,15.9945164 11,16 L3,16 C2.28576638,16.0080005 1.59788957,15.7305532 1.08907734,15.2292511 C0.580265108,14.727949 0.292620411,14.0442736 0.29,13.33 L0.29,2.67 C0.333517864,1.20948494 1.5389357,0.0529955044 3,0.07 L9.11,0.07 C9.16990454,0.0652136363 9.23009546,0.0652136363 9.29,0.07 L9.36,0.07 C9.4347926,0.103823491 9.50261939,0.15130224 9.56,0.21 L13.57,4.15 C13.6281604,4.20965771 13.6725353,4.28134024 13.7,4.36 L13.7,4.42 C13.7095335,4.4796213 13.7095335,4.5403787 13.7,4.6 Z M9.76,2.39 L9.76,4 L11.32,4 L9.76,2.39 Z M11,14.6 C11.3470097,14.6219354 11.6878381,14.5006376 11.9429684,14.2644058 C12.1980987,14.0281741 12.345217,13.6976695 12.35,13.35 L12.35,5.35 L9.1,5.35 C8.71564964,5.34462369 8.40537631,5.03435036 8.4,4.65 L8.4,1.4 L3,1.4 C2.29859837,1.4 1.73,1.96859837 1.73,2.67 L1.73,13.33 C1.73,14.0314016 2.29859837,14.6 3,14.6 L11,14.6 Z M9.22,8.3 C9.60659932,8.3 9.92,8.61340068 9.92,9 C9.92,9.38659932 9.60659932,9.7 9.22,9.7 L7.7,9.7 L7.7,11.22 C7.70000001,11.4700859 7.56658077,11.7011748 7.35000001,11.8262178 C7.13341925,11.9512608 6.86658075,11.9512608 6.64999999,11.8262178 C6.43341923,11.7011748 6.29999999,11.4700859 6.3,11.22 L6.3,9.7 L4.78,9.7 C4.39340068,9.7 4.08,9.38659932 4.08,9 C4.08,8.61340068 4.39340068,8.3 4.78,8.3 L6.3,8.3 L6.3,6.78 C6.3,6.39340068 6.61340068,6.08 7,6.08 C7.38659932,6.08 7.7,6.39340068 7.7,6.78 L7.7,8.3 L9.22,8.3 Z" id="Combined-Shape"></path>
                </g>
            </g>
        </g>
    </g>
</svg>

<svg viewBox="0 0 14 16"><path d="M13.7 4.6c0 .02-.03.05-.03.05v8.68A2.68 2.68 0 0 1 11 16H3a2.68 2.68 0 0 1-2.71-2.67V2.67A2.68 2.68 0 0 1 3 .07h6.11c.06-.005.12-.005.18 0h.07a.66.66 0 0 1 .2.14l4.01 3.94a.57.57 0 0 1 .13.21v.06c.01.06.01.12 0 .18zM9.76 2.39V4h1.56L9.76 2.39zM11 14.6a1.27 1.27 0 0 0 1.35-1.25v-8H9.1a.71.71 0 0 1-.7-.7V1.4H3a1.27 1.27 0 0 0-1.27 1.27v10.66c0 .701.569 1.27 1.27 1.27h8zM9.22 8.3a.7.7 0 0 1 0 1.4H7.7v1.52a.7.7 0 0 1-1.4 0V9.7H4.78a.7.7 0 0 1 0-1.4H6.3V6.78a.7.7 0 0 1 1.4 0V8.3h1.52z" fill="currentColor" fill-rule="evenodd"/></svg>
